chains/sei/logo.svg

<svg width="130" height="130" viewBox="0 0 130 130" fill="none" xmlns="http://www.w3.org/2000/svg">
<path fill-rule="evenodd" clip-rule="evenodd" d="M64.5179 130C83.7333 130 100.997 121.642 112.871 108.364C107.348 103.563 99.0233 103.271 93.1426 108.016L92.0191 108.923C81.2519 117.611 65.5628 116.328 56.3502 106.006C51.3255 100.376 42.7205 99.8016 36.9918 104.713L24.0387 115.818C35.1329 124.693 49.2055 130 64.5179 130ZM85.5433 98.5987C95.7989 90.3232 110.214 90.62 120.078 98.6126C125.973 88.8439 129.365 77.3943 129.365 65.1523C129.365 51.5495 125.177 38.9251 118.02 28.498C113.406 27.5153 108.404 28.663 104.608 32.0272L103.528 32.9847C93.1727 42.1607 77.4411 41.603 67.762 31.7172C62.483 26.3254 53.8604 26.1483 48.3645 31.3189L33.291 45.4998L24.9989 36.6859L40.0724 22.505C50.3676 12.8193 66.5198 13.1509 76.4088 23.2511C81.5758 28.5285 89.9739 28.8262 95.5017 23.9277L96.582 22.9702C99.9375 19.9968 103.82 17.9922 107.884 16.938C96.3957 6.5977 81.1917 0.30481 64.5179 0.30481C31.5987 0.30481 4.40868 24.8338 0.227734 56.6114C10.2266 51.8133 22.5601 53.6596 30.7128 62.0083C35.8596 67.2788 44.1467 67.8351 49.9518 63.2999L58.3797 56.7156C68.9714 48.4408 83.9444 48.8413 94.0785 57.6709L110.487 71.9663L102.537 81.0904L86.1292 66.795C80.3666 61.7744 71.8527 61.5465 65.8297 66.2519L57.402 72.836C46.7364 81.1685 31.5107 80.1463 22.0547 70.463C16.5561 64.8322 7.56305 64.6357 1.82378 70.0211L0 71.7323C1.36487 85.2767 6.89759 97.5909 15.2961 107.373L29.1152 95.5256C39.8466 86.3254 55.9663 87.4021 65.3787 97.948C70.2967 103.458 78.6719 104.143 84.4199 99.5052L85.5433 98.5987Z" fill="#9E1F19"/>
</svg>

<svg xmlns="http://www.w3.org/2000/svg" width="130" height="130" fill="none" viewBox="0 0 130 130"><path fill="#9E1F19" fill-rule="evenodd" d="M64.518 130c19.215 0 36.479-8.358 48.353-21.636-5.523-4.801-13.848-5.093-19.728-.348l-1.124.907c-10.767 8.688-26.456 7.405-35.669-2.917-5.025-5.63-13.63-6.204-19.358-1.293l-12.953 11.105A64.58 64.58 0 0 0 64.518 130m21.025-31.401c10.256-8.276 24.671-7.979 34.535.014 5.895-9.77 9.287-21.219 9.287-33.46 0-13.604-4.188-26.228-11.345-36.655a15.36 15.36 0 0 0-13.412 3.53l-1.08.957c-10.355 9.176-26.087 8.618-35.766-1.268-5.279-5.392-13.902-5.569-19.397-.398L33.29 45.499l-8.292-8.813 15.073-14.181c10.296-9.686 26.448-9.354 36.337.746 5.167 5.278 13.565 5.575 19.093.677l1.08-.958a27.4 27.4 0 0 1 11.302-6.032C96.396 6.598 81.192.305 64.518.305 31.598.305 4.408 24.834.228 56.61c9.999-4.798 22.332-2.951 30.485 5.397A14.453 14.453 0 0 0 49.952 63.3l8.428-6.584c10.591-8.275 25.564-7.875 35.699.955l16.408 14.295-7.95 9.124-16.408-14.295a15.95 15.95 0 0 0-20.3-.543l-8.427 6.584c-10.666 8.332-25.891 7.31-35.347-2.373-5.499-5.63-14.492-5.827-20.231-.442L0 71.732c1.365 13.545 6.898 25.859 15.296 35.641l13.82-11.847c10.73-9.2 26.85-8.124 36.263 2.422 4.918 5.51 13.293 6.195 19.04 1.557z" clip-rule="evenodd"/></svg>
